X: 41269
T: Tuesday, The
R: barndance
M: 4/4
K: Dmajor
|:A2 c>e a2 a2|b>a^g>b a2 a2|A2 c>e g2 a>g|(3fgf d>f e>Bc>B|
A2 c>e a2 a2|b>a^g>b a2 a2|A>Bc>d e>gf>e|1 (3ded c>e d>Bc>B:|2 (3ded c>e d>fa>g||
|:f2 d>e f>ga>f|g>f g2 B4|A2 c>e a2 a2|b>a^g>b a2 e>f|
g>fg>a b2 a>g|f>ef>a A4|A>Bc>d e>gf>e|1 (3ded c>e d>fa>g:|2 (3ded c>e d4||

